X: 117
T: Ateş Attım Samana
C: Hasan Avcı
O: Turkey
F: http://compmusic.upf.edu/node/140
N: tahir--turku--aksak--gimildan--manisa
N: makam= tahir
N: form= turku
N: usul= aksak = 9/8
M: 9/8
L: 1/16
K: C _2/4B ^3/4f  
Q: 1/4=240
%%MIDI tuningsystem comma53
e2dc d2B2 c2cc B4 A2 | B2 BAA2 A2A2 AAA2 A2A2  | 
w:  ARANAĞME  |   | 
G2z2 c2c2 B2BA B4 c2 | B2 BAA2 A2A2 AAA4A2  | \
w:   |   | 
e2dc d2B2 c2cc B4 A2 | 
w:  ARANAĞME  | 
B2 BAA2 A2A2 AAA2 A2A2  | G2z2 c2c2 B2BA B4 c2 | \
w:   |   | 
B2 BAA2 A2A2 AAA4A2  | 
w:   | 
g4 f2g2 a4 a6 | a4f2 a2g2 f2e4d2  | g4 gfa2 g2f2 g2=fe d2 | 
w:  A teş_ *  at tım   |  sa ma *  na    |  Bak  du *  *  ma *  na   | 
e2 edd2 d2d4d6  | g2g2 f2g2 a4 a6 | a4f2 a2g2 f2e4d2  | \
w:  du ma *  *  *  na    |  Se nin  *  *  zâ lım   |  a na *  nı    | 
g4 f2a2 g2f2 g2=fe d2 | 
w:  Ben  ge *  tir *  dim   | 
d2 B2c2 B2A4A6  | e2c2 d2B2 c2c2 B4 G2 | \
w:  i *  ma *  na    |  Gı mıl dan  *  gı mıl dan   | 
B2 A2A2 A2A4A6  | G2z2 c2c2 c2B2 B2{d}B2 c2 | 
w:  gı mıl da nı ver    |  Ah  şöy le  naz *  lım   | 
B2 A2A2 A2A4A6  | e2c2 d2B2 c2c2 B4 G2 | \
w:  gı mıl da nı ver    |  Gı mıl dan  *  gı mıl dan   | 
B2 A2A2 A2A4A6  | G2z2 c2c2 c2B2 B2{d}B2 c2 | 
w:  gı mıl da nı ver    |  Ah  şöy le  naz *  lım   | 
B2 A2A2 A2A4A6  | e2dc d2B2 c2cc B4 A2 | \
w:  gı mıl da nı ver    |  ARANAĞME  | 
B2 BAA2 A2A2 AAA2 A2A2  | 
w:   | 
G2z2 c2c2 B2BA B4 c2 | B2 BAA2 A2A2 AAA4A2  | \
w:   |   | 
e2dc d2B2 c2cc B4 A2 | 
w:  ARANAĞME  | 
B2 BAA2 A2A2 AAA2 A2A2  | G2z2 c2c2 B2BA B4 c2 | \
w:   |   | 
B2 BAA2 A2A2 AAA4A2  | 
w:   | 
g4 f2g2 a4 a6 | a4f2 a2g2 f2e4d2  | g4 gfa2 g2f2 g2=fe d2 | 
w:  A teş_ *  at tım   |  sa ma *  na    |  Bak  du *  *  ma *  na   | 
e2 edd2 d2d4d6  | g2g2 f2g2 a4 a6 | a4f2 a2g2 f2e4d2  | \
w:  du ma *  *  *  na    |  Se nin  *  *  zâ lım   |  a na *  nı    | 
g4 f2a2 g2f2 g2=fe d2 | 
w:  Ben  ge *  tir *  dim   | 
d2 B2c2 B2A4A6  | e2c2 d2B2 c2c2 B4 G2 | \
w:  i *  ma *  na    |  Gı mıl dan  *  gı mıl dan   | 
B2 A2A2 A2A4A6  | G2z2 c2c2 c2B2 B2{d}B2 c2 | 
w:  gı mıl da nı ver    |  Ah  şöy le  naz *  lım   | 
B2 A2A2 A2A4A6  | e2c2 d2B2 c2c2 B4 G2 | \
w:  gı mıl da nı ver    |  Gı mıl dan  *  gı mıl dan   | 
B2 A2A2 A2A4A6  | G2z2 c2c2 c2B2 B2{d}B2 c2 | 
w:  gı mıl da nı ver    |  Ah  şöy le  naz *  lım   | 
B2 A2A2 A2A4A6  | |


